assets/1. P-Z/Soon arrow/Color/Soon.Arrow-color.svg

<svg width="100%" height="100%" viewBox="0 0 32 32" fill="none" xmlns="http://www.w3.org/2000/svg">
<g filter="url(#filter0_iii_18590_948)">
<path d="M12.06 29.8754C10.33 29.8754 8.92004 28.4654 8.92004 26.7354V23.8554C8.92004 22.1254 10.33 20.7154 12.06 20.7154C13.79 20.7154 15.2 22.1254 15.2 23.8554V26.7354C15.2 28.4654 13.79 29.8754 12.06 29.8754ZM12.06 22.7054C11.43 22.7054 10.91 23.2154 10.91 23.8554V26.7354C10.91 27.3654 11.42 27.8854 12.06 27.8854C12.69 27.8854 13.21 27.3754 13.21 26.7354V23.8554C13.21 23.2154 12.69 22.7054 12.06 22.7054Z" fill="#59555F"/>
<path d="M16.01 26.7354C16.01 28.4654 17.42 29.8754 19.15 29.8754C20.88 29.8754 22.29 28.4654 22.29 26.7354V23.8554C22.29 22.1254 20.88 20.7154 19.15 20.7154C17.42 20.7154 16.01 22.1254 16.01 23.8554V26.7354ZM18 23.8554C18 23.2154 18.52 22.7054 19.15 22.7054C19.78 22.7054 20.3 23.2154 20.3 23.8554V26.7354C20.3 27.3754 19.78 27.8854 19.15 27.8854C18.51 27.8854 18 27.3654 18 26.7354V23.8554Z" fill="#59555F"/>
<path d="M5.41001 29.8754C4.29001 29.8754 3.21 29.4654 2.38 28.7154C1.97 28.3454 1.93 27.7154 2.3 27.3054C2.67 26.8954 3.3 26.8554 3.71 27.2254C4.18 27.6454 4.78 27.8754 5.41001 27.8754H5.56C5.84 27.8554 6.03 27.7554 6.15 27.5754C6.29 27.3554 6.25 27.1454 6.21 27.0354C6.14 26.8354 5.99001 26.6754 5.79 26.6054L3.81 25.8654C3.05 25.5754 2.46 24.9754 2.2 24.1954C1.95 23.4354 2.04 22.6154 2.47 21.9554C2.94 21.2154 3.7 20.7854 4.63 20.7254C4.72 20.7154 4.81 20.7154 4.9 20.7154C6.02 20.7154 7.10001 21.1254 7.93001 21.8754C8.34 22.2454 8.38 22.8754 8.01 23.2854C7.64001 23.6954 7.01 23.7354 6.60001 23.3654C6.13001 22.9454 5.53 22.7154 4.9 22.7154H4.75001C4.47001 22.7354 4.28 22.8354 4.16001 23.0154C4.02001 23.2354 4.06 23.4454 4.1 23.5554C4.17 23.7554 4.32 23.9154 4.52 23.9854L6.5 24.7254C7.26 25.0154 7.85001 25.6154 8.11 26.3954C8.36 27.1554 8.27 27.9754 7.84 28.6354C7.37001 29.3754 6.61 29.8054 5.68001 29.8654C5.59001 29.8754 5.50001 29.8754 5.41001 29.8754Z" fill="#59555F"/>
<path d="M28.14 29.4254C28.32 29.7154 28.64 29.8754 28.97 29.8754C29.06 29.8754 29.16 29.8654 29.26 29.8354C29.68 29.7054 29.97 29.3154 29.97 28.8754V21.7054C29.97 21.1554 29.52 20.7054 28.97 20.7054C28.42 20.7054 27.97 21.1554 27.97 21.7054V25.5354L25.1 21.1554C24.86 20.7854 24.4 20.6154 23.98 20.7454C23.56 20.8754 23.27 21.2654 23.27 21.7054V28.8754C23.27 29.4254 23.72 29.8754 24.27 29.8754C24.82 29.8754 25.27 29.4254 25.27 28.8754V25.0454L28.14 29.4254Z" fill="#59555F"/>
</g>
<g filter="url(#filter1_iii_18590_948)">
<path d="M29.65 9.69531L21.33 2.12531C20.71 1.56531 19.73 2.00531 19.73 2.83531V6.47531C19.73 6.82531 19.44 7.11531 19.09 7.11531H3.21003C2.56003 7.10531 2.03003 7.64531 2.03003 8.29531V12.5153C2.03003 13.1753 2.56003 13.7053 3.22003 13.7053H19.1C19.45 13.7053 19.74 13.9953 19.74 14.3453V17.9853C19.74 18.8153 20.73 19.2553 21.34 18.6953L29.66 11.1253C30.07 10.7353 30.07 10.0753 29.65 9.69531Z" fill="url(#paint0_linear_18590_948)"/>
</g>
<defs>
<filter id="filter0_iii_18590_948" x="1.84578" y="20.052" width="28.7742" height="9.82332" filterUnits="userSpaceOnUse" color-interpolation-filters="sRGB">
<feFlood flood-opacity="0" result="BackgroundImageFix"/>
<feBlend mode="normal" in="SourceGraphic" in2="BackgroundImageFix" result="shape"/>
<feColorMatrix in="SourceAlpha" type="matrix" values="0 0 0 0 0 0 0 0 0 0 0 0 0 0 0 0 0 0 127 0" result="hardAlpha"/>
<feOffset dy="-0.65"/>
<feGaussianBlur stdDeviation="0.325"/>
<feComposite in2="hardAlpha" operator="arithmetic" k2="-1" k3="1"/>
<feColorMatrix type="matrix" values="0 0 0 0 0.176471 0 0 0 0 0.141176 0 0 0 0 0.211765 0 0 0 1 0"/>
<feBlend mode="normal" in2="shape" result="effect1_innerShadow_18590_948"/>
<feColorMatrix in="SourceAlpha" type="matrix" values="0 0 0 0 0 0 0 0 0 0 0 0 0 0 0 0 0 0 127 0" result="hardAlpha"/>
<feOffset dx="0.65"/>
<feGaussianBlur stdDeviation="0.325"/>
<feComposite in2="hardAlpha" operator="arithmetic" k2="-1" k3="1"/>
<feColorMatrix type="matrix" values="0 0 0 0 0.176471 0 0 0 0 0.141176 0 0 0 0 0.211765 0 0 0 1 0"/>
<feBlend mode="normal" in2="effect1_innerShadow_18590_948" result="effect2_innerShadow_18590_948"/>
<feColorMatrix in="SourceAlpha" type="matrix" values="0 0 0 0 0 0 0 0 0 0 0 0 0 0 0 0 0 0 127 0" result="hardAlpha"/>
<feOffset dx="-0.2"/>
<feGaussianBlur stdDeviation="0.25"/>
<feComposite in2="hardAlpha" operator="arithmetic" k2="-1" k3="1"/>
<feColorMatrix type="matrix" values="0 0 0 0 0.176471 0 0 0 0 0.141176 0 0 0 0 0.211765 0 0 0 1 0"/>
<feBlend mode="normal" in2="effect2_innerShadow_18590_948" result="effect3_innerShadow_18590_948"/>
</filter>
<filter id="filter1_iii_18590_948" x="1.03003" y="0.874634" width="29.9363" height="19.0714" filterUnits="userSpaceOnUse" color-interpolation-filters="sRGB">
<feFlood flood-opacity="0" result="BackgroundImageFix"/>
<feBlend mode="normal" in="SourceGraphic" in2="BackgroundImageFix" result="shape"/>
<feColorMatrix in="SourceAlpha" type="matrix" values="0 0 0 0 0 0 0 0 0 0 0 0 0 0 0 0 0 0 127 0" result="hardAlpha"/>
<feOffset dx="-1" dy="1"/>
<feGaussianBlur stdDeviation="0.5"/>
<feComposite in2="hardAlpha" operator="arithmetic" k2="-1" k3="1"/>
<feColorMatrix type="matrix" values="0 0 0 0 0.505882 0 0 0 0 0.47451 0 0 0 0 0.537255 0 0 0 1 0"/>
<feBlend mode="normal" in2="shape" result="effect1_innerShadow_18590_948"/>
<feColorMatrix in="SourceAlpha" type="matrix" values="0 0 0 0 0 0 0 0 0 0 0 0 0 0 0 0 0 0 127 0" result="hardAlpha"/>
<feOffset dx="1" dy="-1"/>
<feGaussianBlur stdDeviation="0.5"/>
<feComposite in2="hardAlpha" operator="arithmetic" k2="-1" k3="1"/>
<feColorMatrix type="matrix" values="0 0 0 0 0.152941 0 0 0 0 0.12549 0 0 0 0 0.188235 0 0 0 1 0"/>
<feBlend mode="normal" in2="effect1_innerShadow_18590_948" result="effect2_innerShadow_18590_948"/>
<feColorMatrix in="SourceAlpha" type="matrix" values="0 0 0 0 0 0 0 0 0 0 0 0 0 0 0 0 0 0 127 0" result="hardAlpha"/>
<feOffset dx="1" dy="1"/>
<feGaussianBlur stdDeviation="0.5"/>
<feComposite in2="hardAlpha" operator="arithmetic" k2="-1" k3="1"/>
<feColorMatrix type="matrix" values="0 0 0 0 0.239216 0 0 0 0 0.192157 0 0 0 0 0.290196 0 0 0 1 0"/>
<feBlend mode="normal" in2="effect2_innerShadow_18590_948" result="effect3_innerShadow_18590_948"/>
</filter>
<linearGradient id="paint0_linear_18590_948" x1="15.9982" y1="5.16978" x2="15.9982" y2="18.946" gradientUnits="userSpaceOnUse">
<stop stop-color="#61576D"/>
<stop offset="1" stop-color="#4D4753"/>
</linearGradient>
</defs>
</svg>

<svg width="100%" height="100%" viewBox="0 0 32 32" xmlns="http://www.w3.org/2000/svg"><g fill="#59555F" filter="url(#a)"><path d="M12.06 29.875c-1.73 0-3.14-1.41-3.14-3.14v-2.88c0-1.73 1.41-3.14 3.14-3.14s3.14 1.41 3.14 3.14v2.88c0 1.73-1.41 3.14-3.14 3.14m0-7.17c-.63 0-1.15.51-1.15 1.15v2.88a1.15 1.15 0 0 0 2.3 0v-2.88c0-.64-.52-1.15-1.15-1.15M16.01 26.735c0 1.73 1.41 3.14 3.14 3.14s3.14-1.41 3.14-3.14v-2.88c0-1.73-1.41-3.14-3.14-3.14s-3.14 1.41-3.14 3.14zm1.99-2.88a1.15 1.15 0 0 1 2.3 0v2.88a1.15 1.15 0 0 1-2.3 0zM5.41 29.875c-1.12 0-2.2-.41-3.03-1.16a.998.998 0 1 1 1.33-1.49c.47.42 1.07.65 1.7.65h.15c.28-.02.47-.12.59-.3.14-.22.1-.43.06-.54a.69.69 0 0 0-.42-.43l-1.98-.74c-.76-.29-1.35-.89-1.61-1.67-.25-.76-.16-1.58.27-2.24.47-.74 1.23-1.17 2.16-1.23.09-.01.18-.01.27-.01 1.12 0 2.2.41 3.03 1.16a.998.998 0 1 1-1.33 1.49c-.47-.42-1.07-.65-1.7-.65h-.15c-.28.02-.47.12-.59.3-.14.22-.1.43-.06.54.07.2.22.36.42.43l1.98.74c.76.29 1.35.89 1.61 1.67.25.76.16 1.58-.27 2.24-.47.74-1.23 1.17-2.16 1.23-.09.01-.18.01-.27.01M28.14 29.425c.18.29.5.45.83.45.09 0 .19-.01.29-.04.42-.13.71-.52.71-.96v-7.17c0-.55-.45-1-1-1s-1 .45-1 1v3.83l-2.87-4.38a.99.99 0 0 0-1.12-.41c-.42.13-.71.52-.71.96v7.17c0 .55.45 1 1 1s1-.45 1-1v-3.83z"/></g><g filter="url(#b)"><path fill="url(#c)" d="m29.65 9.695-8.32-7.57a.956.956 0 0 0-1.6.71v3.64c0 .35-.29.64-.64.64H3.21c-.65-.01-1.18.53-1.18 1.18v4.22c0 .66.53 1.19 1.19 1.19H19.1c.35 0 .64.29.64.64v3.64c0 .83.99 1.27 1.6.71l8.32-7.57a.977.977 0 0 0-.01-1.43"/></g><defs><filter id="a" width="28.774" height="9.823" x="1.846" y="20.052" color-interpolation-filters="sRGB" filterUnits="userSpaceOnUse"><feFlood flood-opacity="0" result="BackgroundImageFix"/><feBlend in="SourceGraphic" in2="BackgroundImageFix" result="shape"/><feColorMatrix in="SourceAlpha" result="hardAlpha" values="0 0 0 0 0 0 0 0 0 0 0 0 0 0 0 0 0 0 127 0"/><feOffset dy="-.65"/><feGaussianBlur stdDeviation=".325"/><feComposite in2="hardAlpha" k2="-1" k3="1" operator="arithmetic"/><feColorMatrix values="0 0 0 0 0.176471 0 0 0 0 0.141176 0 0 0 0 0.211765 0 0 0 1 0"/><feBlend in2="shape" result="effect1_innerShadow_18590_948"/><feColorMatrix in="SourceAlpha" result="hardAlpha" values="0 0 0 0 0 0 0 0 0 0 0 0 0 0 0 0 0 0 127 0"/><feOffset dx=".65"/><feGaussianBlur stdDeviation=".325"/><feComposite in2="hardAlpha" k2="-1" k3="1" operator="arithmetic"/><feColorMatrix values="0 0 0 0 0.176471 0 0 0 0 0.141176 0 0 0 0 0.211765 0 0 0 1 0"/><feBlend in2="effect1_innerShadow_18590_948" result="effect2_innerShadow_18590_948"/><feColorMatrix in="SourceAlpha" result="hardAlpha" values="0 0 0 0 0 0 0 0 0 0 0 0 0 0 0 0 0 0 127 0"/><feOffset dx="-.2"/><feGaussianBlur stdDeviation=".25"/><feComposite in2="hardAlpha" k2="-1" k3="1" operator="arithmetic"/><feColorMatrix values="0 0 0 0 0.176471 0 0 0 0 0.141176 0 0 0 0 0.211765 0 0 0 1 0"/><feBlend in2="effect2_innerShadow_18590_948" result="effect3_innerShadow_18590_948"/></filter><filter id="b" width="29.936" height="19.071" x="1.03" y=".875" color-interpolation-filters="sRGB" filterUnits="userSpaceOnUse"><feFlood flood-opacity="0" result="BackgroundImageFix"/><feBlend in="SourceGraphic" in2="BackgroundImageFix" result="shape"/><feColorMatrix in="SourceAlpha" result="hardAlpha" values="0 0 0 0 0 0 0 0 0 0 0 0 0 0 0 0 0 0 127 0"/><feOffset dx="-1" dy="1"/><feGaussianBlur stdDeviation=".5"/><feComposite in2="hardAlpha" k2="-1" k3="1" operator="arithmetic"/><feColorMatrix values="0 0 0 0 0.505882 0 0 0 0 0.47451 0 0 0 0 0.537255 0 0 0 1 0"/><feBlend in2="shape" result="effect1_innerShadow_18590_948"/><feColorMatrix in="SourceAlpha" result="hardAlpha" values="0 0 0 0 0 0 0 0 0 0 0 0 0 0 0 0 0 0 127 0"/><feOffset dx="1" dy="-1"/><feGaussianBlur stdDeviation=".5"/><feComposite in2="hardAlpha" k2="-1" k3="1" operator="arithmetic"/><feColorMatrix values="0 0 0 0 0.152941 0 0 0 0 0.12549 0 0 0 0 0.188235 0 0 0 1 0"/><feBlend in2="effect1_innerShadow_18590_948" result="effect2_innerShadow_18590_948"/><feColorMatrix in="SourceAlpha" result="hardAlpha" values="0 0 0 0 0 0 0 0 0 0 0 0 0 0 0 0 0 0 127 0"/><feOffset dx="1" dy="1"/><feGaussianBlur stdDeviation=".5"/><feComposite in2="hardAlpha" k2="-1" k3="1" operator="arithmetic"/><feColorMatrix values="0 0 0 0 0.239216 0 0 0 0 0.192157 0 0 0 0 0.290196 0 0 0 1 0"/><feBlend in2="effect2_innerShadow_18590_948" result="effect3_innerShadow_18590_948"/></filter><linearGradient id="c" x1="15.998" x2="15.998" y1="5.17" y2="18.946" gradientUnits="userSpaceOnUse"><stop stop-color="#61576D"/><stop offset="1" stop-color="#4D4753"/></linearGradient></defs></svg>
